X:089
T:Hallow Eeen                 
B:Musick for the Scots Songs in Tea Table Miscellany, c1726
Z:Nigel Gatherer
M:4/4
L:1/8
K:F
cB|A2 GF F2 fg|a2 gf d3 f|A3 f cAGF|E2 G2 G2 cB|A2 GF F2 fg|
a2 gf d3 f|ABcE FDEC|D2 F>G F2::fe|dcde fgfe|dcde f2 FG|
A3 f cAFG|E2 G2 G2 cB|AGAF cBcA|gagf e2 dc|bagf edec|d2 fg f2:|]
